;FLAVOR:Marlin
;TIME:2558
;Filament used: 1.32829m
;Layer height: 0.16
;MINX:13.797
;MINY:70.649
;MINZ:0.2
;MAXX:111.044
;MAXY:144.243
;MAXZ:6.16
;Generated with Cura_SteamEngine main
M82 ;absolute extrusion mode
; Ender 3 Custom Start G-code
G92 E0 ; Reset Extruder
G28 ; Home all axes
M104 S175 ; Start heating up the nozzle most of the way
M190 S60 ; Start heating the bed, wait until target temperature reached
M109 S200 ; Finish heating the nozzle
G1 Z2.0 F3000 ; Move Z Axis up little to prevent scratching of Heat Bed
G1 X0.1 Y20 Z0.3 F5000.0 ; Move to start position
G1 X0.1 Y200.0 Z0.3 F1500.0 E15 ; Draw the first line
G1 X0.4 Y200.0 Z0.3 F5000.0 ; Move to side a little
G1 X0.4 Y20 Z0.3 F1500.0 E30 ; Draw the second line
G92 E0 ; Reset Extruder
G1 Z2.0 F3000 ; Move Z Axis up little to prevent scratching of Heat Bed
G1 X5 Y20 Z0.3 F5000.0 ; Move over to prevent blob squish
G92 E0
G92 E0
G1 F1500 E-6.5
;LAYER_COUNT:33
;LAYER:0
M107
G0 F6000 X25.11 Y71.501 Z0.2
G0 X16.935 Y78.335
;TYPE:SKIRT
G1 F1500 E0
G1 F1200 X17.173 Y77.93 E0.01562
G1 X17.881 Y76.871 E0.05799
G1 X18.178 Y76.478 E0.07438
G1 X19.025 Y75.485 E0.11779
G1 X19.376 Y75.12 E0.13463
G1 X20.384 Y74.195 E0.18013
G1 X20.788 Y73.868 E0.19742
G1 X21.864 Y73.1 E0.24139
G1 X22.304 Y72.824 E0.25866
G1 X23.464 Y72.19 E0.30263
G1 X23.891 Y71.989 E0.31833
G1 X25.11 Y71.501 E0.362
G1 X25.595 Y71.34 E0.379
G1 X26.884 Y70.998 E0.42335
G1 X27.399 Y70.894 E0.44083
G1 X28.718 Y70.71 E0.48512
G1 X29.191 Y70.673 E0.5009
G1 X30.512 Y70.649 E0.54485
G1 X31.421 Y70.693 E0.57512
G1 X32.237 Y70.755 E0.60233
G1 X34.81 Y70.913 E0.68807
G1 X37.322 Y70.996 E0.77167
G1 X39.811 Y71.008 E0.85445
G1 X43.323 Y70.908 E0.97131
G1 X44.078 Y70.873 E0.99645
G1 X45.059 Y70.871 E1.02908
G1 X45.929 Y70.913 E1.05805
G1 X47.391 Y71.021 E1.10681
G1 X49.633 Y71.169 E1.18154
G1 X52.108 Y71.261 E1.26391
G1 X54.671 Y71.285 E1.34916
G1 X57.157 Y71.236 E1.43186
G1 X58.652 Y71.165 E1.48164
G1 X58.804 Y71.164 E1.4867
G1 X59.987 Y71.109 E1.52609
G1 X60.998 Y71.108 E1.55972
G1 X61.595 Y71.135 E1.57959
G1 X62.241 Y71.184 E1.60114
G1 X62.842 Y71.247 E1.62124
G1 X65.479 Y71.484 E1.7093
G1 X67.962 Y71.636 E1.79204
G1 X70.485 Y71.719 E1.876
G1 X72.974 Y71.731 E1.95878
G1 X76.468 Y71.632 E2.07504
G1 X76.964 Y71.609 E2.09156
G1 X77.942 Y71.607 E2.12409
G1 X78.823 Y71.65 E2.15342
G1 X80.192 Y71.753 E2.19908
G1 X82.724 Y71.909 E2.28346
G1 X85.257 Y71.993 E2.36775
G1 X87.775 Y72.005 E2.4515
G1 X90.269 Y71.946 E2.53448
G1 X94.028 Y71.728 E2.65971
G1 X94.769 Y71.67 E2.68443
G1 X96.091 Y71.647 E2.72841
G1 X96.629 Y71.67 E2.74632
G1 X97.941 Y71.805 E2.79019
G1 X98.41 Y71.882 E2.806
G1 X99.714 Y72.179 E2.85048
G1 X100.217 Y72.326 E2.86791
G1 X101.475 Y72.778 E2.91237
G1 X101.931 Y72.974 E2.92888
G1 X103.123 Y73.575 E2.97328
G1 X103.59 Y73.847 E2.99125
G1 X104.721 Y74.603 E3.0365
G1 X105.074 Y74.872 E3.05126
G1 X106.04 Y75.7 E3.09358
G1 X106.452 Y76.097 E3.11261
G1 X107.388 Y77.121 E3.15875
G1 X107.681 Y77.485 E3.17429
G1 X108.416 Y78.514 E3.21635
G1 X108.696 Y78.958 E3.23381
G1 X109.353 Y80.16 E3.27937
G1 X109.553 Y80.587 E3.29505
G1 X110.041 Y81.816 E3.33903
G1 X110.215 Y82.345 E3.35755
G1 X110.55 Y83.615 E3.40124
G1 X110.638 Y84.053 E3.4161
G1 X110.819 Y85.349 E3.45962
G1 X110.863 Y85.903 E3.47811
G1 X110.887 Y87.257 E3.52315
G1 X110.839 Y88.147 E3.55279
G1 X110.62 Y90.702 E3.63808
G1 X110.469 Y93.234 E3.72245
G1 X110.392 Y95.747 E3.80607
G1 X110.385 Y98.278 E3.89025
G1 X110.449 Y100.757 E3.97273
G1 X110.586 Y103.29 E4.0571
G1 X110.795 Y105.827 E4.14177
G1 X110.94 Y107.224 E4.18848
G1 X111.021 Y108.2 E4.22106
G1 X111.044 Y109.598 E4.26756
G1 X111.022 Y110.062 E4.28301
G1 X110.889 Y111.32 E4.32508
G1 X110.801 Y111.857 E4.34318
G1 X110.49 Y113.212 E4.38942
G1 X110.35 Y113.683 E4.40577
G1 X109.905 Y114.908 E4.44911
G1 X109.703 Y115.376 E4.46607
G1 X109.109 Y116.554 E4.50995
G1 X108.869 Y116.966 E4.52581
G1 X108.152 Y118.046 E4.56892
G1 X107.832 Y118.471 E4.58662
G1 X106.943 Y119.509 E4.63207
G1 X106.598 Y119.865 E4.64856
G1 X105.64 Y120.744 E4.6918
G1 X105.277 Y121.039 E4.70736
G1 X103.293 Y122.7 E4.79342
G1 X101.402 Y124.379 E4.87753
G1 X99.571 Y126.095 E4.961
G1 X97.793 Y127.861 E5.04435
G1 X96.053 Y129.689 E5.12828
G1 X94.38 Y131.55 E5.21152
G1 X92.732 Y133.49 E5.29618
G1 X91.166 Y135.444 E5.37947
G1 X89.196 Y138.033 E5.48767
G1 X88.367 Y139 E5.53003
G1 X88.01 Y139.371 E5.54716
G1 X87.002 Y140.296 E5.59266
G1 X86.62 Y140.605 E5.609
G1 X85.563 Y141.362 E5.65225
G1 X85.131 Y141.634 E5.66923
G1 X83.945 Y142.282 E5.71418
G1 X83.47 Y142.505 E5.73163
G1 X82.187 Y143.012 E5.77751
G1 X81.712 Y143.166 E5.79412
G1 X80.513 Y143.481 E5.83535
G1 X80.051 Y143.575 E5.85103
G1 X78.732 Y143.761 E5.89534
G1 X78.18 Y143.805 E5.91376
G1 X76.804 Y143.829 E5.95953
G1 X76.344 Y143.808 E5.97484
G1 X73.547 Y143.641 E6.06804
G1 X70.998 Y143.561 E6.15286
G1 X68.474 Y143.553 E6.23681
G1 X66.02 Y143.616 E6.31846
G1 X62.391 Y143.83 E6.43937
G1 X60.899 Y143.946 E6.48914
G1 X59.585 Y143.969 E6.53285
G1 X57.943 Y143.9 E6.58751
G1 X55.294 Y143.826 E6.67565
G1 X52.771 Y143.826 E6.75957
G1 X50.315 Y143.896 E6.84129
G1 X46.981 Y144.099 E6.95238
G1 X45.416 Y144.222 E7.0046
G1 X44.014 Y144.243 E7.05123
G1 X43.483 Y144.217 E7.06891
G1 X42.905 Y144.173 E7.08819
G1 X42.032 Y144.084 E7.11738
G1 X41.014 Y143.966 E7.15147
G1 X38.499 Y143.744 E7.23544
G1 X36.016 Y143.595 E7.31817
G1 X33.481 Y143.515 E7.40253
G1 X30.146 Y143.518 E7.51345
G1 X29.31 Y143.534 E7.54126
G1 X28.632 Y143.526 E7.56382
G1 X28.067 Y143.502 E7.58262
G1 X26.726 Y143.362 E7.62747
G1 X26.234 Y143.28 E7.64406
G1 X24.964 Y142.99 E7.68739
G1 X24.47 Y142.846 E7.7045
G1 X23.185 Y142.384 E7.74992
G1 X22.736 Y142.19 E7.76619
G1 X21.576 Y141.605 E7.8094
G1 X21.123 Y141.342 E7.82682
G1 X19.972 Y140.573 E7.87286
G1 X19.558 Y140.257 E7.89018
G1 X18.559 Y139.395 E7.93407
G1 X18.22 Y139.065 E7.9498
G1 X17.353 Y138.116 E7.99256
G1 X17.038 Y137.728 E8.00918
G1 X16.27 Y136.658 E8.05299
G1 X15.979 Y136.196 E8.07115
G1 X15.315 Y134.977 E8.11731
G1 X15.111 Y134.539 E8.13339
G1 X14.628 Y133.315 E8.17715
G1 X14.469 Y132.829 E8.19416
G1 X14.145 Y131.602 E8.23637
G1 X14.051 Y131.14 E8.25205
G1 X13.865 Y129.821 E8.29635
G1 X13.821 Y129.269 E8.31477
G1 X13.797 Y127.914 E8.35984
G1 X13.834 Y127.178 E8.38435
G1 X13.884 Y126.512 E8.40657
G1 X14.059 Y124.5 E8.47374
G1 X14.208 Y121.977 E8.5578
G1 X14.283 Y119.461 E8.64152
G1 X14.289 Y116.936 E8.7255
G1 X14.223 Y114.468 E8.80762
G1 X14.013 Y110.936 E8.9253
G1 X13.919 Y109.741 E8.96517
G1 X13.885 Y108.803 E8.99639
G1 X13.9 Y108.301 E9.01309
G1 X13.929 Y107.747 E9.03154
G1 X14.037 Y106.683 E9.06711
G1 X14.355 Y104.573 E9.13809
G1 X14.658 Y102.083 E9.22151
G1 X14.892 Y99.58 E9.30513
G1 X15.053 Y97.082 E9.38838
G1 X15.145 Y94.549 E9.47269
G1 X15.166 Y92.025 E9.55664
G1 X15.115 Y89.491 E9.64094
G1 X14.968 Y86.441 E9.7425
G1 X14.965 Y85.454 E9.77533
G1 X14.987 Y84.927 E9.79287
G1 X15.128 Y83.567 E9.83835
G1 X15.215 Y83.048 E9.85585
G1 X15.507 Y81.778 E9.89919
G1 X15.629 Y81.361 E9.91364
G1 X16.08 Y80.106 E9.958
G1 X16.313 Y79.564 E9.97762
G1 X16.935 Y78.335 E10.02343
G1 F1500 E3.52343
G0 F6000 X15.764 Y85.488
G1 F1500 E10.02343
G1 F1200 X15.786 Y84.961 E10.04098
G1 X15.917 Y83.7 E10.08314
G1 X16.004 Y83.181 E10.10065
G1 X16.274 Y82.003 E10.14084
G1 X16.396 Y81.586 E10.15529
G1 X16.815 Y80.422 E10.19644
G1 X17.048 Y79.88 E10.21606
G1 X17.625 Y78.74 E10.25856
G1 X17.863 Y78.335 E10.27418
G1 X18.519 Y77.353 E10.31346
G1 X18.816 Y76.96 E10.32985
G1 X19.602 Y76.04 E10.37009
G1 X19.953 Y75.675 E10.38693
G1 X20.888 Y74.817 E10.42914
G1 X21.292 Y74.49 E10.44643
G1 X22.289 Y73.777 E10.4872
G1 X22.729 Y73.501 E10.50447
G1 X23.805 Y72.913 E10.54525
G1 X24.232 Y72.712 E10.56095
G1 X25.362 Y72.26 E10.60143
G1 X25.847 Y72.099 E10.61843
G1 X27.042 Y71.782 E10.65955
G1 X27.557 Y71.678 E10.67702
G1 X28.781 Y71.507 E10.71813
G1 X29.254 Y71.47 E10.73391
G1 X30.478 Y71.448 E10.77463
G1 X31.361 Y71.491 E10.80403
G1 X32.128 Y71.549 E10.82961
G1 X34.805 Y71.714 E10.91882
G1 X37.291 Y71.796 E11.00155
G1 X39.83 Y71.808 E11.086
G1 X43.33 Y71.709 E11.20245
G1 X44.116 Y71.672 E11.22862
G1 X45.025 Y71.67 E11.25886
G1 X45.87 Y71.711 E11.287
G1 X47.276 Y71.815 E11.33389
G1 X49.586 Y71.967 E11.41088
G1 X52.107 Y72.061 E11.49479
G1 X54.679 Y72.085 E11.58034
G1 X57.21 Y72.036 E11.66454
G1 X58.69 Y71.965 E11.71382
G1 X58.815 Y71.965 E11.71798
G1 X60.024 Y71.908 E11.75823
G1 X60.962 Y71.907 E11.78943
G1 X61.559 Y71.934 E11.80931
G1 X62.158 Y71.979 E11.82929
G1 X62.828 Y72.049 E11.85169
G1 X65.392 Y72.279 E11.93731
G1 X67.958 Y72.436 E12.02282
G1 X70.454 Y72.519 E12.10588
G1 X72.992 Y72.531 E12.1903
G1 X76.474 Y72.433 E12.30615
G1 X77.001 Y72.408 E12.3237
G1 X77.908 Y72.406 E12.35387
G1 X78.763 Y72.448 E12.38234
G1 X80.084 Y72.548 E12.4264
G1 X82.72 Y72.709 E12.51424
G1 X85.226 Y72.793 E12.59764
G1 X87.79 Y72.805 E12.68292
G1 X90.278 Y72.746 E12.76569
G1 X94.134 Y72.522 E12.89416
G1 X94.831 Y72.468 E12.91741
G1 X96.057 Y72.446 E12.95819
G1 X96.595 Y72.469 E12.9761
G1 X97.812 Y72.595 E13.0168
G1 X98.281 Y72.672 E13.03261
G1 X99.489 Y72.947 E13.07381
G1 X99.992 Y73.094 E13.09124
G1 X101.159 Y73.513 E13.13248
G1 X101.615 Y73.709 E13.14899
G1 X102.721 Y74.266 E13.19018
G1 X103.188 Y74.538 E13.20815
G1 X104.236 Y75.239 E13.25009
G1 X104.589 Y75.508 E13.26485
G1 X105.485 Y76.276 E13.3041
G1 X105.897 Y76.673 E13.32313
G1 X106.765 Y77.622 E13.36591
G1 X107.058 Y77.986 E13.38145
G1 X107.74 Y78.941 E13.42048
G1 X108.02 Y79.385 E13.43794
G1 X108.629 Y80.5 E13.48019
G1 X108.829 Y80.927 E13.49588
G1 X109.281 Y82.066 E13.53663
G1 X109.455 Y82.595 E13.55516
G1 X109.766 Y83.773 E13.59568
G1 X109.854 Y84.211 E13.61054
G1 X110.022 Y85.412 E13.65087
G1 X110.066 Y85.966 E13.66936
G1 X110.088 Y87.222 E13.71114
G1 X110.042 Y88.079 E13.73968
G1 X109.82 Y90.663 E13.82594
G1 X109.669 Y93.197 E13.91037
G1 X109.592 Y95.721 E13.99436
G1 X109.585 Y98.261 E14.07884
G1 X109.651 Y100.821 E14.16402
G1 X109.787 Y103.33 E14.24759
G1 X110 Y105.929 E14.33432
G1 X110.167 Y107.551 E14.38856
G1 X110.224 Y108.264 E14.41235
G1 X110.245 Y109.56 E14.45546
G1 X110.223 Y110.024 E14.47091
G1 X110.1 Y111.191 E14.50994
G1 X110.012 Y111.728 E14.52803
G1 X109.723 Y112.984 E14.5709
G1 X109.583 Y113.455 E14.58724
G1 X109.171 Y114.591 E14.62744
G1 X108.969 Y115.059 E14.64439
G1 X108.418 Y116.151 E14.68507
G1 X108.178 Y116.563 E14.70093
G1 X107.512 Y117.564 E14.74092
G1 X107.192 Y117.989 E14.75861
G1 X106.369 Y118.952 E14.80075
G1 X106.024 Y119.308 E14.81723
G1 X105.135 Y120.123 E14.85735
G1 X104.791 Y120.403 E14.8721
G1 X102.778 Y122.088 E14.95941
G1 X100.851 Y123.799 E15.04512
G1 X99.026 Y125.509 E15.12831
G1 X97.233 Y127.29 E15.21236
G1 X95.445 Y129.169 E15.29863
G1 X93.775 Y131.027 E15.38172
G1 X92.13 Y132.963 E15.46622
G1 X90.511 Y134.982 E15.55229
G1 X88.559 Y137.548 E15.65953
G1 X87.791 Y138.445 E15.6988
G1 X87.434 Y138.816 E15.71593
G1 X86.499 Y139.674 E15.75813
G1 X86.117 Y139.983 E15.77448
G1 X85.137 Y140.685 E15.81457
G1 X84.705 Y140.957 E15.83155
G1 X83.605 Y141.558 E15.87324
G1 X83.13 Y141.781 E15.89069
G1 X81.941 Y142.251 E15.93322
G1 X81.466 Y142.405 E15.94983
G1 X80.354 Y142.697 E15.98807
G1 X79.892 Y142.791 E16.00375
G1 X78.668 Y142.964 E16.04486
G1 X78.116 Y143.008 E16.06328
G1 X76.841 Y143.029 E16.10569
G1 X76.236 Y143.001 E16.12584
G1 X73.548 Y142.84 E16.2154
G1 X71.025 Y142.762 E16.29935
G1 X68.492 Y142.753 E16.3836
G1 X65.953 Y142.818 E16.46808
G1 X62.335 Y143.032 E16.58862
G1 X60.837 Y143.148 E16.6386
G1 X59.619 Y143.17 E16.67911
G1 X57.929 Y143.099 E16.73537
G1 X55.316 Y143.026 E16.82232
G1 X52.783 Y143.026 E16.90656
G1 X50.244 Y143.099 E16.99105
G1 X46.923 Y143.3 E17.1017
G1 X45.353 Y143.424 E17.15409
G1 X44.053 Y143.444 E17.19733
G1 X43.522 Y143.418 E17.21501
G1 X42.986 Y143.377 E17.23289
G1 X41.963 Y143.272 E17.26709
G1 X41.073 Y143.168 E17.2969
G1 X38.58 Y142.948 E17.38014
G1 X36.019 Y142.794 E17.46547
G1 X33.505 Y142.715 E17.54913
G1 X30.131 Y142.718 E17.66135
G1 X29.295 Y142.734 E17.68916
G1 X28.666 Y142.727 E17.71008
G1 X28.101 Y142.703 E17.72889
G1 X26.857 Y142.573 E17.77049
G1 X26.365 Y142.491 E17.78708
G1 X25.188 Y142.222 E17.82724
G1 X24.694 Y142.078 E17.84435
G1 X23.502 Y141.649 E17.88649
G1 X23.053 Y141.455 E17.90275
G1 X21.978 Y140.913 E17.9428
G1 X21.525 Y140.65 E17.96022
G1 X20.457 Y139.937 E18.00293
G1 X20.043 Y139.621 E18.02025
G1 X19.117 Y138.822 E18.06093
G1 X18.778 Y138.492 E18.07667
G1 X17.974 Y137.612 E18.11631
G1 X17.659 Y137.224 E18.13293
G1 X16.947 Y136.231 E18.17357
G1 X16.656 Y135.769 E18.19173
G1 X16.041 Y134.639 E18.23452
G1 X15.837 Y134.201 E18.25059
G1 X15.389 Y133.067 E18.29115
G1 X15.23 Y132.581 E18.30815
G1 X14.929 Y131.443 E18.34731
G1 X14.835 Y130.981 E18.36299
G1 X14.662 Y129.757 E18.4041
G1 X14.618 Y129.205 E18.42252
G1 X14.596 Y127.949 E18.4643
G1 X14.631 Y127.236 E18.48804
G1 X14.669 Y126.719 E18.50529
G1 X14.858 Y124.547 E18.5778
G1 X15.008 Y121.995 E18.66283
G1 X15.083 Y119.486 E18.74631
G1 X15.089 Y116.917 E18.83176
G1 X15.023 Y114.429 E18.91454
G1 X14.812 Y110.879 E19.03282
G1 X14.717 Y109.678 E19.07289
G1 X14.699 Y108.343 E19.1173
G1 X14.728 Y107.789 E19.13575
G1 X14.828 Y106.803 E19.16871
G1 X15.146 Y104.691 E19.23975
G1 X15.452 Y102.181 E19.32385
G1 X15.69 Y99.634 E19.40893
G1 X15.854 Y97.092 E19.49366
G1 X15.945 Y94.584 E19.57713
G1 X15.966 Y92.015 E19.66258
G1 X15.915 Y89.473 E19.74714
G1 X15.767 Y86.403 E19.84937
G1 X15.764 Y85.488 E19.8798
G0 F6000 X15.364 Y85.471
G1 F1200 X15.386 Y84.944 E19.89734
G1 X15.523 Y83.634 E19.94115
G1 X15.61 Y83.115 E19.95865
G1 X15.89 Y81.891 E20.00042
G1 X16.012 Y81.474 E20.01487
G1 X16.448 Y80.264 E20.05765
G1 X16.681 Y79.722 E20.07727
G1 X17.28 Y78.538 E20.1214
G1 X17.518 Y78.133 E20.13702
G1 X18.2 Y77.112 E20.17786
G1 X18.497 Y76.719 E20.19425
G1 X19.314 Y75.763 E20.23607
G1 X19.665 Y75.398 E20.25291
G1 X20.636 Y74.506 E20.29677
G1 X21.04 Y74.179 E20.31406
G1 X22.076 Y73.438 E20.35642
G1 X22.516 Y73.162 E20.3737
G1 X23.634 Y72.551 E20.41607
G1 X24.061 Y72.35 E20.43177
G1 X25.236 Y71.881 E20.47385
G1 X25.721 Y71.72 E20.49084
G1 X26.963 Y71.39 E20.53359
G1 X27.478 Y71.286 E20.55106
G1 X28.749 Y71.108 E20.59375
G1 X29.222 Y71.071 E20.60953
G1 X30.495 Y71.048 E20.65187
G1 X31.391 Y71.092 E20.68171
G1 X32.185 Y71.152 E20.7082
G1 X34.806 Y71.313 E20.79553
G1 X37.307 Y71.396 E20.87876
G1 X39.82 Y71.408 E20.96235
G1 X43.353 Y71.308 E21.0799
G1 X44.097 Y71.273 E21.10468
G1 X45.042 Y71.27 E21.13611
G1 X45.9 Y71.312 E21.16468
G1 X47.338 Y71.419 E21.21264
G1 X49.591 Y71.567 E21.28773
G1 X52.126 Y71.661 E21.37211
G1 X54.675 Y71.685 E21.45689
G1 X57.183 Y71.636 E21.54032
G1 X58.671 Y71.565 E21.58987
G1 X58.823 Y71.564 E21.59493
G1 X60.006 Y71.509 E21.63432
G1 X60.98 Y71.508 E21.66671
G1 X61.577 Y71.535 E21.68659
G1 X62.199 Y71.581 E21.70733
G1 X62.831 Y71.647 E21.72847
G1 X65.454 Y71.883 E21.81606
G1 X67.958 Y72.036 E21.8995
G1 X70.47 Y72.119 E21.98309
G1 X72.983 Y72.131 E22.06668
G1 X76.497 Y72.032 E22.1836
G1 X76.982 Y72.009 E22.19975
G1 X77.925 Y72.007 E22.23111
G1 X78.793 Y72.049 E22.26002
G1 X80.14 Y72.151 E22.30495
G1 X82.722 Y72.309 E22.39099
G1 X85.241 Y72.393 E22.47481
G1 X87.783 Y72.405 E22.55936
G1 X90.274 Y72.346 E22.64224
G1 X94.08 Y72.125 E22.76904
G1 X94.8 Y72.069 E22.79306
G1 X96.074 Y72.047 E22.83544
G1 X96.612 Y72.07 E22.85335
G1 X97.876 Y72.2 E22.89561
G1 X98.345 Y72.277 E22.91142
G1 X99.601 Y72.563 E22.95426
G1 X100.104 Y72.71 E22.97169
G1 X101.317 Y73.145 E23.01455
G1 X101.773 Y73.341 E23.03106
G1 X102.922 Y73.92 E23.07385
G1 X103.389 Y74.192 E23.09183
G1 X104.479 Y74.921 E23.13544
G1 X104.832 Y75.19 E23.1502
G1 X105.762 Y75.988 E23.19096
G1 X106.174 Y76.385 E23.20999
G1 X107.076 Y77.371 E23.25444
G1 X107.369 Y77.735 E23.26998
G1 X108.078 Y78.728 E23.31056
G1 X108.358 Y79.172 E23.32802
G1 X108.991 Y80.33 E23.37192
G1 X109.191 Y80.757 E23.3876
G1 X109.661 Y81.941 E23.42997
G1 X109.835 Y82.47 E23.44849
G1 X110.158 Y83.694 E23.49059
G1 X110.246 Y84.132 E23.50545
G1 X110.421 Y85.381 E23.5474
G1 X110.465 Y85.935 E23.56588
G1 X110.488 Y87.24 E23.6093
G1 X110.44 Y88.113 E23.63838
G1 X110.219 Y90.682 E23.72414
G1 X110.07 Y93.199 E23.808
