;FLAVOR:Marlin
;TIME:5820
;Filament used: 6.133m
;Layer height: 0.2
;MINX:19.619
;MINY:24.501
;MINZ:0.2
;MAXX:101.619
;MAXY:189.738
;MAXZ:20
;Generated with Cura_SteamEngine main
M82 ;absolute extrusion mode
; Ender 3 Custom Start G-code
G92 E0 ; Reset Extruder
G28 ; Home all axes
M104 S175 ; Start heating up the nozzle most of the way
M190 S60 ; Start heating the bed, wait until target temperature reached
M109 S200 ; Finish heating the nozzle
G1 Z2.0 F3000 ; Move Z Axis up little to prevent scratching of Heat Bed
G1 X0.1 Y20 Z0.3 F5000.0 ; Move to start position
G1 X0.1 Y200.0 Z0.3 F1500.0 E15 ; Draw the first line
G1 X0.4 Y200.0 Z0.3 F5000.0 ; Move to side a little
G1 X0.4 Y20 Z0.3 F1500.0 E30 ; Draw the second line
G92 E0 ; Reset Extruder
G1 Z2.0 F3000 ; Move Z Axis up little to prevent scratching of Heat Bed
G1 X5 Y20 Z0.3 F5000.0 ; Move over to prevent blob squish
G92 E0
G92 E0
G1 F1500 E-6.5
;LAYER_COUNT:100
;LAYER:0
M107
G0 F6000 X31.938 Y35.599 Z0.2
G0 X24.965 Y43.775
;TYPE:SKIRT
G1 F1500 E0
G1 F1200 X25.341 Y43.212 E0.02252
G1 X26.031 Y42.224 E0.0626
G1 X26.736 Y41.274 E0.10195
G1 X27.474 Y40.332 E0.14175
G1 X28.088 Y39.591 E0.17375
G1 X28.665 Y38.922 E0.20314
G1 X29.349 Y38.167 E0.23702
G1 X30.315 Y37.155 E0.28355
G1 X31.035 Y36.447 E0.31714
G1 X31.938 Y35.599 E0.35834
G1 X32.26 Y35.309 E0.37275
G1 X33.415 Y34.314 E0.42346
G1 X33.98 Y33.855 E0.44767
G1 X34.902 Y33.136 E0.48656
G1 X35.912 Y32.396 E0.5282
G1 X36.879 Y31.726 E0.56733
G1 X37.494 Y31.323 E0.59179
G1 X38.668 Y30.589 E0.63784
G1 X39.499 Y30.103 E0.66986
G1 X40.224 Y29.697 E0.69749
G1 X41.303 Y29.131 E0.73802
G1 X42.489 Y28.548 E0.78197
G1 X43.112 Y28.264 E0.80475
G1 X44.333 Y27.735 E0.849
G1 X45.247 Y27.37 E0.88174
G1 X46.083 Y27.055 E0.91145
G1 X47.285 Y26.641 E0.95374
G1 X48.328 Y26.311 E0.99012
G1 X49.228 Y26.053 E1.02126
G1 X50.499 Y25.72 E1.06496
G1 X51.339 Y25.525 E1.09364
G1 X52.544 Y25.271 E1.1346
G1 X53.265 Y25.14 E1.15898
G1 X54.63 Y24.921 E1.20496
G1 X55.54 Y24.804 E1.23547
G1 X56.739 Y24.676 E1.27558
G1 X57.676 Y24.602 E1.30684
G1 X58.532 Y24.55 E1.33536
G1 X59.574 Y24.513 E1.37004
G1 X61.016 Y24.501 E1.418
G1 X61.974 Y24.522 E1.44988
G1 X63.098 Y24.571 E1.48729
G1 X64.09 Y24.642 E1.52037
G1 X64.891 Y24.714 E1.54712
G1 X66.163 Y24.863 E1.58972
G1 X67.34 Y25.032 E1.62927
G1 X68.056 Y25.154 E1.65342
G1 X69.402 Y25.414 E1.69902
G1 X70.112 Y25.571 E1.72321
G1 X71.23 Y25.842 E1.76147
G1 X72.354 Y26.149 E1.80022
G1 X73.582 Y26.519 E1.84288
G1 X74.473 Y26.816 E1.87412
G1 X75.573 Y27.21 E1.91298
G1 X76.428 Y27.543 E1.9435
G1 X77.536 Y28.001 E1.98337
G1 X78.17 Y28.283 E2.00645
G1 X79.487 Y28.904 E2.05488
G1 X80.284 Y29.31 E2.08463
G1 X81.378 Y29.898 E2.12594
G1 X82.196 Y30.368 E2.15732
G1 X82.91 Y30.795 E2.18499
G1 X83.808 Y31.363 E2.22033
G1 X84.93 Y32.115 E2.26525
G1 X85.569 Y32.57 E2.29134
G1 X86.683 Y33.401 E2.33757
G1 X87.406 Y33.974 E2.36825
G1 X88.363 Y34.768 E2.40961
G1 X88.931 Y35.266 E2.43474
G1 X89.922 Y36.174 E2.47944
G1 X90.566 Y36.8 E2.50931
G1 X91.435 Y37.682 E2.55049
G1 X92.076 Y38.368 E2.58172
G1 X92.848 Y39.234 E2.62031
G1 X93.464 Y39.966 E2.65213
G1 X94.018 Y40.648 E2.68135
G1 X94.775 Y41.635 E2.72272
G1 X95.449 Y42.561 E2.76082
G1 X95.803 Y43.075 E2.78157
G1 X96.465 Y44.073 E2.82141
G1 X97.16 Y45.195 E2.8653
G1 X97.758 Y46.219 E2.90474
G1 X98.105 Y46.85 E2.9287
G1 X98.742 Y48.073 E2.97456
G1 X99.076 Y48.76 E2.99997
G1 X99.653 Y50.018 E3.046
G1 X100.001 Y50.843 E3.07578
G1 X100.468 Y52.015 E3.11774
G1 X100.71 Y52.674 E3.14109
G1 X101.007 Y53.533 E3.17132
G1 X101.274 Y54.432 E3.20251
G1 X101.462 Y55.351 E3.23371
G1 X101.572 Y56.282 E3.26489
G1 X101.601 Y56.907 E3.2857
G1 X101.619 Y57.998 E3.32199
G1 X101.618 Y68.569 E3.67359
G1 X101.608 Y69.271 E3.69694
G1 X101.555 Y70.207 E3.72812
G1 X101.422 Y71.135 E3.7593
G1 X101.21 Y72.049 E3.79051
G1 X100.922 Y72.942 E3.82171
G1 X100.57 Y73.78 E3.85195
G1 X99.818 Y75.369 E3.91042
G1 X98.783 Y77.66 E3.99403
G1 X97.801 Y80.016 E4.07892
G1 X96.915 Y82.317 E4.16093
G1 X96.078 Y84.685 E4.24447
G1 X95.305 Y87.09 E4.32849
G1 X94.601 Y89.515 E4.41248
G1 X93.961 Y91.979 E4.49715
G1 X93.405 Y94.398 E4.5797
G1 X92.904 Y96.899 E4.66454
G1 X92.487 Y99.337 E4.7468
G1 X92.128 Y101.854 E4.83137
G1 X91.849 Y104.324 E4.91404
G1 X91.632 Y106.883 E4.99946
G1 X91.492 Y109.345 E5.08148
G1 X91.421 Y111.894 E5.16629
G1 X91.421 Y114.419 E5.25027
G1 X91.492 Y116.914 E5.33329
G1 X91.634 Y119.416 E5.41664
G1 X91.849 Y121.93 E5.50056
G1 X92.133 Y124.43 E5.58425
G1 X92.491 Y126.939 E5.66854
G1 X92.915 Y129.407 E5.75183
G1 X93.418 Y131.913 E5.83684
G1 X93.965 Y134.294 E5.9181
G1 X94.613 Y136.778 E6.00348
G1 X95.315 Y139.194 E6.08716
G1 X96.082 Y141.574 E6.17033
G1 X96.921 Y143.951 E6.25417
G1 X97.83 Y146.309 E6.33822
G1 X98.8 Y148.627 E6.4218
G1 X99.85 Y150.952 E6.50665
G1 X100.527 Y152.365 E6.55876
G1 X100.896 Y153.227 E6.58995
G1 X101.19 Y154.118 E6.62115
G1 X101.408 Y155.03 E6.65234
G1 X101.546 Y155.958 E6.68355
G1 X101.606 Y156.894 E6.71474
G1 X101.585 Y157.831 E6.74591
G1 X101.484 Y158.764 E6.77713
G1 X101.305 Y159.684 E6.8083
G1 X100.999 Y160.729 E6.84452
G1 X100.62 Y161.809 E6.88259
G1 X100.197 Y162.917 E6.92203
G1 X99.818 Y163.835 E6.95506
G1 X99.354 Y164.887 E6.99331
G1 X98.946 Y165.746 E7.02494
G1 X98.418 Y166.801 E7.06417
G1 X98.056 Y167.479 E7.08974
G1 X97.535 Y168.413 E7.12531
G1 X96.876 Y169.512 E7.16793
G1 X96.26 Y170.485 E7.20623
G1 X95.761 Y171.226 E7.23595
G1 X95.239 Y171.973 E7.26626
G1 X94.497 Y172.972 E7.30765
G1 X93.951 Y173.675 E7.33725
G1 X93.297 Y174.475 E7.37162
G1 X92.382 Y175.533 E7.41814
G1 X91.75 Y176.223 E7.44926
G1 X91.154 Y176.85 E7.47804
G1 X90.261 Y177.737 E7.5199
G1 X89.635 Y178.334 E7.54867
G1 X88.697 Y179.177 E7.59062
G1 X87.781 Y179.961 E7.63072
G1 X87.244 Y180.397 E7.65372
G1 X86.104 Y181.278 E7.70164
G1 X85.325 Y181.845 E7.73369
G1 X84.64 Y182.324 E7.76149
G1 X83.758 Y182.909 E7.79669
G1 X82.57 Y183.651 E7.84328
G1 X81.927 Y184.029 E7.86809
G1 X81.032 Y184.532 E7.90223
G1 X80.147 Y185 E7.93553
G1 X79.092 Y185.527 E7.97476
G1 X77.929 Y186.064 E8.01736
G1 X76.889 Y186.511 E8.05501
G1 X75.983 Y186.872 E8.08745
G1 X75.156 Y187.183 E8.11684
G1 X73.958 Y187.597 E8.15899
G1 X72.907 Y187.93 E8.19566
G1 X72.014 Y188.186 E8.22656
G1 X71.064 Y188.439 E8.25926
G1 X70.498 Y188.579 E8.27865
G1 X69.074 Y188.892 E8.32714
G1 X68.693 Y188.968 E8.34007
G1 X67.768 Y189.134 E8.37132
G1 X66.618 Y189.316 E8.41005
G1 X65.932 Y189.406 E8.43306
G1 X64.424 Y189.57 E8.48351
G1 X63.58 Y189.635 E8.51167
G1 X62.71 Y189.688 E8.54066
G1 X61.68 Y189.725 E8.57494
G1 X60.222 Y189.738 E8.62343
G1 X59.263 Y189.717 E8.65534
G1 X58.494 Y189.687 E8.68093
G1 X57.19 Y189.6 E8.7244
G1 X56.279 Y189.518 E8.75482
G1 X55.038 Y189.371 E8.79639
G1 X53.893 Y189.206 E8.83486
G1 X53.168 Y189.082 E8.85933
G1 X51.837 Y188.825 E8.90441
G1 X51.127 Y188.668 E8.9286
G1 X50.009 Y188.397 E8.96686
G1 X48.885 Y188.09 E9.00562
G1 X47.657 Y187.72 E9.04827
G1 X46.773 Y187.426 E9.07926
G1 X45.982 Y187.147 E9.10716
G1 X44.792 Y186.689 E9.14957
G1 X43.719 Y186.245 E9.18819
G1 X42.867 Y185.864 E9.21923
G1 X42.042 Y185.477 E9.24954
G1 X40.951 Y184.927 E9.29018
G1 X39.869 Y184.345 E9.33104
G1 X39.05 Y183.876 E9.36243
G1 X38.312 Y183.435 E9.39102
G1 X37.24 Y182.752 E9.4333
G1 X36.543 Y182.287 E9.46117
G1 X35.68 Y181.677 E9.49632
G1 X34.528 Y180.818 E9.54411
G1 X33.988 Y180.39 E9.56703
G1 X33.104 Y179.664 E9.60508
G1 X32.178 Y178.857 E9.64593
G1 X31.344 Y178.091 E9.68359
G1 X30.666 Y177.434 E9.715
G1 X30.013 Y176.775 E9.74585
G1 X29.35 Y176.073 E9.77797
G1 X28.358 Y174.965 E9.82743
G1 X27.791 Y174.293 E9.85668
G1 X27.235 Y173.611 E9.88594
G1 X26.457 Y172.595 E9.9285
G1 X25.763 Y171.639 E9.9678
G1 X25.205 Y170.824 E10.00065
G1 X24.744 Y170.122 E10.02858
G1 X24.191 Y169.232 E10.06343
G1 X23.463 Y167.989 E10.11134
G1 X23.126 Y167.374 E10.13467
G1 X22.638 Y166.446 E10.16954
G1 X22.153 Y165.458 E10.20615
G1 X21.589 Y164.227 E10.25118
G1 X21.321 Y163.598 E10.27392
G1 X20.761 Y162.196 E10.32414
G1 X20.523 Y161.548 E10.3471
G1 X20.237 Y160.725 E10.37607
G1 X19.969 Y159.826 E10.40728
G1 X19.779 Y158.908 E10.43846
G1 X19.667 Y157.977 E10.46964
G1 X19.637 Y157.333 E10.49109
G1 X19.619 Y156.241 E10.52741
G1 X19.62 Y57.666 E13.80603
G1 X19.63 Y56.977 E13.82895
G1 X19.684 Y56.041 E13.86013
G1 X19.817 Y55.113 E13.89131
G1 X20.029 Y54.199 E13.92252
G1 X20.223 Y53.57 E13.94441
G1 X20.526 Y52.686 E13.97549
G1 X20.936 Y51.588 E14.01448
G1 X21.334 Y50.61 E14.04959
G1 X21.885 Y49.352 E14.09527
G1 X22.293 Y48.493 E14.1269
G1 X22.818 Y47.444 E14.16592
G1 X23.18 Y46.765 E14.19151
G1 X23.682 Y45.864 E14.22582
G1 X24.336 Y44.771 E14.26818
G1 X24.965 Y43.775 E14.30736
G1 F1500 E7.80736
G0 F6000 X21.391 Y52.646
G1 F1500 E14.30736
G1 F1200 X21.794 Y51.592 E14.34489
G1 X22.152 Y50.729 E14.37597
G1 X22.608 Y49.694 E14.41358
G1 X23.009 Y48.848 E14.44472
G1 X23.387 Y48.086 E14.47301
G1 X23.886 Y47.141 E14.50856
G1 X24.38 Y46.255 E14.5423
G1 X25.014 Y45.196 E14.58335
G1 X25.631 Y44.219 E14.62178
G1 X26.14 Y43.462 E14.65212
G1 X26.854 Y42.451 E14.69329
G1 X27.367 Y41.765 E14.72178
G1 X27.912 Y41.064 E14.75131
G1 X28.694 Y40.113 E14.79226
G1 X29.468 Y39.222 E14.83152
G1 X29.939 Y38.707 E14.85473
G1 X30.66 Y37.946 E14.8896
G1 X31.388 Y37.218 E14.92384
G1 X32.486 Y36.183 E14.97403
G1 X32.784 Y35.913 E14.9874
G1 X33.919 Y34.935 E15.03723
G1 X34.484 Y34.476 E15.06144
G1 X35.393 Y33.767 E15.09979
G1 X36.201 Y33.172 E15.13316
G1 X37.069 Y32.564 E15.16841
G1 X37.932 Y31.993 E15.20283
G1 X39.072 Y31.279 E15.24757
G1 X39.89 Y30.801 E15.27908
G1 X40.615 Y30.395 E15.30671
G1 X41.659 Y29.847 E15.34593
G1 X42.821 Y29.276 E15.38899
G1 X43.594 Y28.925 E15.41723
G1 X44.631 Y28.477 E15.4548
G1 X45.326 Y28.198 E15.47971
G1 X46.366 Y27.804 E15.5167
G1 X47.529 Y27.403 E15.55762
G1 X48.551 Y27.079 E15.59328
G1 X49.217 Y26.886 E15.61634
G1 X50.385 Y26.573 E15.65656
G1 X51.508 Y26.307 E15.69494
G1 X52.687 Y26.058 E15.73502
G1 X53.588 Y25.896 E15.76547
G1 X54.734 Y25.714 E15.80406
G1 X55.628 Y25.599 E15.83404
G1 X56.803 Y25.473 E15.87335
G1 X57.519 Y25.415 E15.89724
G1 X58.581 Y25.349 E15.93263
G1 X59.599 Y25.313 E15.96651
G1 X60.692 Y25.3 E16.00286
G1 X61.749 Y25.316 E16.03802
G1 X63.043 Y25.369 E16.0811
G1 X63.809 Y25.422 E16.10664
G1 X64.819 Y25.511 E16.14036
G1 X65.829 Y25.626 E16.17417
G1 X67.205 Y25.821 E16.22039
G1 X68.128 Y25.98 E16.25154
G1 X68.947 Y26.137 E16.27928
G1 X70.16 Y26.404 E16.32059
G1 X71.318 Y26.691 E16.36027
G1 X71.926 Y26.858 E16.38124
G1 X73.331 Y27.278 E16.43002
G1 X74.011 Y27.503 E16.45384
G1 X75.001 Y27.851 E16.48874
G1 X76.125 Y28.283 E16.52879
G1 X77.211 Y28.732 E16.56788
G1 X78.031 Y29.099 E16.59776
G1 X79.126 Y29.617 E16.63805
G1 X79.719 Y29.917 E16.66015
G1 X80.981 Y30.592 E16.70775
G1 X81.617 Y30.956 E16.73213
G1 X82.753 Y31.639 E16.77621
G1 X83.55 Y32.15 E16.8077
G1 X84.466 Y32.767 E16.84443
G1 X85.269 Y33.341 E16.87726
G1 X86.188 Y34.029 E16.91545
G1 X86.898 Y34.591 E16.94556
G1 X87.835 Y35.369 E16.98607
G1 X88.556 Y36.004 E17.01803
G1 X89.366 Y36.749 E17.05463
G1 X89.998 Y37.363 E17.08394
G1 X90.851 Y38.229 E17.12437
G1 X91.481 Y38.904 E17.15508
G1 X92.237 Y39.75 E17.19281
G1 X92.717 Y40.318 E17.21755
G1 X93.587 Y41.393 E17.26354
G1 X94.007 Y41.943 E17.28656
G1 X94.792 Y43.017 E17.33081
G1 X95.011 Y43.332 E17.34357
G1 X95.798 Y44.515 E17.39082
G1 X96.471 Y45.601 E17.43332
G1 X97.057 Y46.605 E17.47198
G1 X97.504 Y47.422 E17.50296
G1 X97.887 Y48.154 E17.53044
G1 X98.443 Y49.293 E17.57259
G1 X98.788 Y50.04 E17.59996
G1 X99.187 Y50.967 E17.63353
G1 X99.603 Y51.996 E17.67044
G1 X99.959 Y52.95 E17.70431
G1 X100.25 Y53.792 E17.73394
G1 X100.506 Y54.659 E17.76401
G1 X100.683 Y55.544 E17.79402
G1 X100.781 Y56.442 E17.82407
G1 X100.801 Y56.921 E17.84002
G1 X100.819 Y57.998 E17.87584
G1 X100.818 Y68.557 E18.22703
G1 X100.808 Y69.259 E18.25039
G1 X100.755 Y70.161 E18.28044
G1 X100.623 Y71.054 E18.31046
G1 X100.412 Y71.932 E18.3405
G1 X100.124 Y72.788 E18.37054
G1 X99.846 Y73.441 E18.39414
G1 X99.357 Y74.485 E18.43248
G1 X99.105 Y75.005 E18.4517
G1 X98.051 Y77.338 E18.53685
G1 X97.064 Y79.705 E18.62215
G1 X96.162 Y82.048 E18.70565
G1 X95.31 Y84.459 E18.7907
G1 X94.537 Y86.865 E18.87475
G1 X93.829 Y89.302 E18.95916
G1 X93.195 Y91.743 E19.04304
G1 X92.614 Y94.273 E19.12938
G1 X92.124 Y96.716 E19.21225
G1 X91.694 Y99.233 E19.29718
G1 X91.334 Y101.755 E19.38191
G1 X91.049 Y104.274 E19.46623
G1 X90.838 Y106.769 E19.54951
G1 X90.692 Y109.347 E19.63539
G1 X90.621 Y111.872 E19.71941
G1 X90.621 Y114.408 E19.80376
G1 X90.694 Y116.946 E19.8882
G1 X90.838 Y119.494 E19.97309
G1 X91.054 Y122.016 E20.05728
G1 X91.339 Y124.53 E20.14143
G1 X91.703 Y127.079 E20.22707
G1 X92.129 Y129.564 E20.31093
G1 X92.625 Y132.03 E20.39459
G1 X93.194 Y134.505 E20.47905
G1 X93.842 Y136.993 E20.56457
G1 X94.545 Y139.41 E20.64829
G1 X95.325 Y141.833 E20.73295
G1 X96.172 Y144.232 E20.81757
G1 X97.093 Y146.621 E20.90273
G1 X98.063 Y148.937 E20.98624
G1 X99.123 Y151.286 E21.07195
G1 X99.806 Y152.711 E21.12451
G1 X100.16 Y153.542 E21.15455
G1 X100.439 Y154.401 E21.18459
G1 X100.641 Y155.281 E21.21462
G1 X100.764 Y156.175 E21.24464
G1 X100.808 Y157.078 E21.27471
G1 X100.772 Y157.98 E21.30473
G1 X100.656 Y158.876 E21.33478
G1 X100.461 Y159.757 E21.36479
G1 X100.243 Y160.467 E21.3895
G1 X99.962 Y161.276 E21.41798
G1 X99.457 Y162.614 E21.46555
G1 X99.085 Y163.516 E21.498
G1 X98.631 Y164.545 E21.53541
G1 X98.23 Y165.391 E21.56655
G1 X97.712 Y166.424 E21.60498
G1 X97.251 Y167.283 E21.63741
G1 X96.837 Y168.022 E21.66558
G1 X96.198 Y169.087 E21.70689
G1 X95.595 Y170.04 E21.7444
G1 X95.105 Y170.768 E21.77359
G1 X94.583 Y171.515 E21.8039
G1 X93.865 Y172.482 E21.84395
G1 X93.319 Y173.185 E21.87356
G1 X92.68 Y173.966 E21.90712
G1 X91.977 Y174.784 E21.943
G1 X91.312 Y175.519 E21.97596
G1 X90.574 Y176.298 E22.01165
G1 X89.839 Y177.032 E22.0462
G1 X88.838 Y177.981 E22.09208
G1 X88.175 Y178.571 E22.1216
G1 X87.276 Y179.34 E22.16095
G1 X86.739 Y179.776 E22.18395
G1 X85.866 Y180.456 E22.22076
G1 X84.866 Y181.189 E22.262
G1 X83.937 Y181.834 E22.29961
G1 X83.134 Y182.359 E22.33152
G1 X82.411 Y182.812 E22.3599
G1 X81.329 Y183.45 E22.40168
G1 X80.399 Y183.965 E22.43704
G1 X79.581 Y184.391 E22.46771
G1 X78.442 Y184.951 E22.50992
G1 X77.61 Y185.33 E22.54033
G1 X76.591 Y185.769 E22.57724
G1 X75.911 Y186.042 E22.60161
G1 X74.597 Y186.534 E22.64827
G1 X73.714 Y186.835 E22.6793
G1 X72.685 Y187.161 E22.7152
G1 X72.018 Y187.354 E22.7383
G1 X70.635 Y187.722 E22.7859
G1 X70.081 Y187.854 E22.80484
G1 X68.903 Y188.111 E22.84494
G1 X67.828 Y188.312 E22.88132
G1 X66.514 Y188.522 E22.92557
G1 X65.625 Y188.637 E22.95539
G1 X64.36 Y188.772 E22.9977
G1 X63.531 Y188.836 E23.02536
G1 X62.369 Y188.903 E23.06407
G1 X61.654 Y188.926 E23.08786
G1 X60.238 Y188.938 E23.13496
G1 X59.488 Y188.923 E23.15991
G1 X58.228 Y188.871 E23.20185
G1 X57.262 Y188.803 E23.23406
G1 X56.351 Y188.721 E23.26449
G1 X55.149 Y188.579 E23.30474
G1 X54.334 Y188.465 E23.33211
G1 X53.302 Y188.293 E23.36691
G1 X52.295 Y188.102 E23.401
G1 X51.079 Y187.835 E23.44241
G1 X49.921 Y187.548 E23.48209
G1 X49.313 Y187.381 E23.50306
G1 X47.908 Y186.961 E23.55183
G1 X47.228 Y186.736 E23.57566
G1 X46.248 Y186.392 E23.6102
G1 X45.095 Y185.949 E23.65128
G1 X44.044 Y185.514 E23.68912
G1 X43.396 Y185.226 E23.7127
G1 X42.109 Y184.619 E23.76003
G1 X41.327 Y184.221 E23.78921
G1 X40.266 Y183.651 E23.82927
G1 X39.461 Y183.189 E23.86014
G1 X38.723 Y182.748 E23.88874
G1 X37.684 Y182.086 E23.92971
G1 X36.719 Y181.436 E23.96841
G1 X35.996 Y180.918 E23.99799
G1 X35.283 Y180.389 E24.02752
G1 X34.485 Y179.763 E24.06126
G1 X33.612 Y179.046 E24.09883
G1 X32.717 Y178.266 E24.13832
G1 X32.106 Y177.709 E24.16582
G1 X31.401 Y177.035 E24.19826
G1 X30.388 Y176.011 E24.24616
G1 X29.779 Y175.358 E24.27586
G1 X28.968 Y174.448 E24.3164
G1 X28.532 Y173.933 E24.33885
G1 X27.855 Y173.105 E24.37442
G1 X27.102 Y172.122 E24.4156
G1 X26.422 Y171.185 E24.45411
G1 X25.874 Y170.385 E24.48636
G1 X25.413 Y169.683 E24.5143
G1 X24.768 Y168.64 E24.55508
G1 X24.165 Y167.605 E24.59492
G1 X23.738 Y166.823 E24.62456
G1 X23.346 Y166.075 E24.65265
G1 X22.873 Y165.109 E24.68842
G1 X22.325 Y163.913 E24.73218
