;FLAVOR:Marlin
;TIME:7872
;Filament used: 5.34195m
;Layer height: 0.2
;MINX:23.039
;MINY:27.844
;MINZ:0.2
;MAXX:105.039
;MAXY:193.083
;MAXZ:22
;Generated with Cura_SteamEngine main
M82 ;absolute extrusion mode
; Ender 3 Custom Start G-code
G92 E0 ; Reset Extruder
G28 ; Home all axes
M104 S175 ; Start heating up the nozzle most of the way
M190 S60 ; Start heating the bed, wait until target temperature reached
M109 S200 ; Finish heating the nozzle
G1 Z2.0 F3000 ; Move Z Axis up little to prevent scratching of Heat Bed
G1 X0.1 Y20 Z0.3 F5000.0 ; Move to start position
G1 X0.1 Y200.0 Z0.3 F1500.0 E15 ; Draw the first line
G1 X0.4 Y200.0 Z0.3 F5000.0 ; Move to side a little
G1 X0.4 Y20 Z0.3 F1500.0 E30 ; Draw the second line
G92 E0 ; Reset Extruder
G1 Z2.0 F3000 ; Move Z Axis up little to prevent scratching of Heat Bed
G1 X5 Y20 Z0.3 F5000.0 ; Move over to prevent blob squish
G92 E0
G92 E0
G1 F1500 E-6.5
;LAYER_COUNT:110
;LAYER:0
M107
G0 F6000 X35.285 Y39.006 Z0.2
G0 X27.309 Y48.85
;TYPE:SKIRT
G1 F1500 E0
G1 F1200 X27.781 Y48.071 E0.03029
G1 X28.383 Y47.121 E0.0677
G1 X28.903 Y46.348 E0.09869
G1 X29.609 Y45.346 E0.13946
G1 X30.032 Y44.779 E0.16298
G1 X30.71 Y43.903 E0.19983
G1 X31.372 Y43.095 E0.23457
G1 X32.069 Y42.283 E0.27016
G1 X32.755 Y41.524 E0.30419
G1 X33.738 Y40.495 E0.35152
G1 X34.398 Y39.844 E0.38235
G1 X35.285 Y39.006 E0.42294
G1 X35.959 Y38.406 E0.45295
G1 X36.891 Y37.61 E0.49372
G1 X37.605 Y37.035 E0.52421
G1 X38.559 Y36.3 E0.56426
G1 X39.146 Y35.871 E0.58845
G1 X40.287 Y35.077 E0.63468
G1 X41.082 Y34.558 E0.66626
G1 X42.098 Y33.925 E0.70607
G1 X42.719 Y33.562 E0.73
G1 X43.993 Y32.852 E0.77851
G1 X44.742 Y32.464 E0.80656
G1 X45.864 Y31.912 E0.84815
G1 X46.529 Y31.607 E0.87249
G1 X47.481 Y31.191 E0.90704
G1 X48.666 Y30.714 E0.94953
G1 X49.787 Y30.296 E0.98932
G1 X50.491 Y30.054 E1.01408
G1 X51.795 Y29.639 E1.05959
G1 X52.685 Y29.384 E1.09039
G1 X53.56 Y29.151 E1.1205
G1 X54.586 Y28.907 E1.15558
G1 X55.979 Y28.612 E1.20294
G1 X56.691 Y28.483 E1.22701
G1 X58.016 Y28.271 E1.27164
G1 X58.956 Y28.149 E1.30316
G1 X60.181 Y28.017 E1.34414
G1 X61.077 Y27.947 E1.37403
G1 X61.946 Y27.894 E1.40299
G1 X63.22 Y27.852 E1.44539
G1 X64.436 Y27.844 E1.48583
G1 X65.395 Y27.865 E1.51774
G1 X66.483 Y27.912 E1.55396
G1 X67.231 Y27.963 E1.57889
G1 X68.685 Y28.096 E1.62746
G1 X69.586 Y28.207 E1.65765
G1 X70.802 Y28.383 E1.69852
G1 X71.695 Y28.538 E1.72866
G1 X72.831 Y28.759 E1.76715
G1 X73.556 Y28.919 E1.79185
G1 X74.616 Y29.176 E1.82812
G1 X75.662 Y29.46 E1.86417
G1 X76.997 Y29.86 E1.91053
G1 X77.918 Y30.167 E1.94282
G1 X78.668 Y30.432 E1.96927
G1 X79.866 Y30.893 E2.01197
G1 X80.939 Y31.337 E2.05059
G1 X81.587 Y31.625 E2.07417
G1 X82.588 Y32.093 E2.11093
G1 X83.728 Y32.666 E2.15336
G1 X84.799 Y33.242 E2.19381
G1 X85.58 Y33.69 E2.22376
G1 X86.591 Y34.3 E2.26303
G1 X87.415 Y34.828 E2.29558
G1 X88.105 Y35.288 E2.32316
G1 X88.635 Y35.657 E2.34464
G1 X89.825 Y36.531 E2.39375
G1 X90.674 Y37.196 E2.42962
G1 X91.812 Y38.136 E2.47871
G1 X92.299 Y38.564 E2.50027
G1 X93.108 Y39.299 E2.53663
G1 X94.016 Y40.172 E2.57852
G1 X94.601 Y40.761 E2.60613
G1 X95.469 Y41.684 E2.64827
G1 X96.307 Y42.624 E2.69016
G1 X96.743 Y43.14 E2.71263
G1 X97.614 Y44.216 E2.75867
G1 X98.2 Y44.987 E2.79088
G1 X98.918 Y45.978 E2.83158
G1 X99.431 Y46.727 E2.86178
G1 X99.908 Y47.451 E2.89062
G1 X100.473 Y48.361 E2.92624
G1 X101.018 Y49.284 E2.96189
G1 X101.632 Y50.393 E3.00405
G1 X102.023 Y51.14 E3.0321
G1 X102.497 Y52.107 E3.06792
G1 X103.05 Y53.313 E3.11204
G1 X103.412 Y54.166 E3.14286
G1 X103.905 Y55.407 E3.18728
G1 X104.217 Y56.265 E3.21764
G1 X104.422 Y56.86 E3.23857
G1 X104.689 Y57.759 E3.26977
G1 X104.879 Y58.677 E3.30095
G1 X104.99 Y59.608 E3.33213
G1 X105.02 Y60.241 E3.35321
G1 X105.039 Y61.368 E3.3907
G1 X105.038 Y159.916 E6.66842
G1 X105.028 Y160.605 E6.69134
G1 X104.974 Y161.541 E6.72252
G1 X104.841 Y162.469 E6.7537
G1 X104.629 Y163.383 E6.78491
G1 X104.435 Y164.012 E6.8068
G1 X104.132 Y164.896 E6.83788
G1 X103.729 Y165.977 E6.87625
G1 X103.324 Y166.973 E6.91201
G1 X102.773 Y168.23 E6.95766
G1 X102.368 Y169.084 E6.9891
G1 X101.833 Y170.151 E7.0288
G1 X101.4 Y170.957 E7.05923
G1 X100.781 Y172.053 E7.10109
G1 X100.292 Y172.861 E7.13251
G1 X99.868 Y173.536 E7.15902
G1 X99.166 Y174.59 E7.20114
G1 X98.654 Y175.321 E7.23082
G1 X98.065 Y176.12 E7.26384
G1 X97.375 Y177.011 E7.30132
G1 X96.732 Y177.799 E7.33515
G1 X95.993 Y178.66 E7.37289
G1 X95.174 Y179.561 E7.41338
G1 X94.337 Y180.435 E7.45363
G1 X93.623 Y181.136 E7.48691
G1 X92.721 Y181.983 E7.52807
G1 X92.401 Y182.272 E7.54241
G1 X91.493 Y183.06 E7.58239
G1 X90.496 Y183.872 E7.62516
G1 X89.51 Y184.632 E7.66657
G1 X88.76 Y185.178 E7.69742
G1 X88.069 Y185.662 E7.72548
G1 X87.18 Y186.251 E7.76095
G1 X85.945 Y187.022 E7.80938
G1 X85.159 Y187.479 E7.83962
G1 X84.434 Y187.885 E7.86725
G1 X83.35 Y188.454 E7.90797
G1 X82.502 Y188.875 E7.93946
G1 X81.562 Y189.311 E7.97392
G1 X80.274 Y189.869 E8.02061
G1 X79.41 Y190.212 E8.05153
G1 X78.301 Y190.626 E8.0909
G1 X77.578 Y190.874 E8.11632
G1 X76.278 Y191.288 E8.1617
G1 X75.391 Y191.542 E8.19239
G1 X74.516 Y191.775 E8.22251
G1 X73.505 Y192.017 E8.25708
G1 X72.443 Y192.246 E8.29322
G1 X71.2 Y192.475 E8.33525
G1 X70.028 Y192.661 E8.37472
G1 X69.117 Y192.778 E8.40527
G1 X67.921 Y192.906 E8.44528
G1 X67.207 Y192.964 E8.4691
G1 X65.777 Y193.048 E8.51675
G1 X65.109 Y193.069 E8.53898
G1 X64.014 Y193.083 E8.5754
G1 X62.994 Y193.069 E8.60933
G1 X61.49 Y193.007 E8.65939
G1 X60.568 Y192.94 E8.69014
G1 X59.467 Y192.837 E8.72692
G1 X58.736 Y192.751 E8.7514
G1 X57.312 Y192.549 E8.79924
G1 X56.382 Y192.388 E8.83063
G1 X55.235 Y192.164 E8.8695
G1 X54.288 Y191.952 E8.90178
G1 X53.471 Y191.753 E8.92974
G1 X52.415 Y191.466 E8.96614
G1 X51.406 Y191.168 E9.00113
G1 X50.367 Y190.83 E9.03747
G1 X49.131 Y190.39 E9.08111
G1 X48.177 Y190.019 E9.11516
G1 X47.089 Y189.567 E9.15434
G1 X46.475 Y189.293 E9.1767
G1 X45.171 Y188.678 E9.22466
G1 X44.37 Y188.27 E9.25455
G1 X43.567 Y187.842 E9.28482
G1 X42.659 Y187.329 E9.31951
G1 X41.462 Y186.611 E9.36593
G1 X40.686 Y186.113 E9.3966
G1 X39.96 Y185.629 E9.42562
G1 X39.083 Y185.01 E9.46132
G1 X38.225 Y184.375 E9.49683
G1 X37.253 Y183.61 E9.53797
G1 X36.561 Y183.04 E9.56779
G1 X35.735 Y182.323 E9.60416
G1 X34.736 Y181.409 E9.6492
G1 X34.255 Y180.944 E9.67145
G1 X33.441 Y180.126 E9.70983
G1 X32.815 Y179.466 E9.74009
G1 X32.055 Y178.626 E9.77777
G1 X31.336 Y177.786 E9.81454
G1 X30.64 Y176.932 E9.85118
G1 X30.017 Y176.125 E9.88509
G1 X29.183 Y174.983 E9.93213
G1 X28.645 Y174.198 E9.96378
G1 X28.168 Y173.474 E9.99262
G1 X27.601 Y172.56 E10.02839
G1 X27.069 Y171.659 E10.06319
G1 X26.563 Y170.748 E10.09785
G1 X26.06 Y169.795 E10.13369
G1 X25.482 Y168.611 E10.17751
G1 X25.135 Y167.857 E10.20512
G1 X24.74 Y166.941 E10.2383
G1 X24.193 Y165.576 E10.28721
G1 X23.95 Y164.916 E10.3106
G1 X23.649 Y164.046 E10.34122
G1 X23.383 Y163.146 E10.37243
G1 X23.195 Y162.228 E10.4036
G1 X23.085 Y161.296 E10.43481
G1 X23.057 Y160.676 E10.45546
G1 X23.039 Y159.584 E10.49178
G1 X23.04 Y61.01 E13.77037
G1 X23.05 Y60.321 E13.79328
G1 X23.104 Y59.385 E13.82447
G1 X23.237 Y58.457 E13.85565
G1 X23.449 Y57.543 E13.88686
G1 X23.638 Y56.929 E13.90822
G1 X24.047 Y55.747 E13.94982
G1 X24.46 Y54.666 E13.98831
G1 X24.811 Y53.817 E14.01887
G1 X25.33 Y52.639 E14.06168
G1 X25.619 Y52.027 E14.08419
G1 X26.24 Y50.781 E14.1305
G1 X26.602 Y50.103 E14.15606
G1 X27.309 Y48.85 E14.20391
G1 F1500 E7.70391
G0 F6000 X23.84 Y61.022
G1 F1500 E14.20391
G1 F1200 X23.85 Y60.333 E14.22683
G1 X23.903 Y59.431 E14.25688
G1 X24.036 Y58.538 E14.28691
G1 X24.247 Y57.66 E14.31695
G1 X24.395 Y57.187 E14.33343
G1 X24.796 Y56.03 E14.37416
G1 X25.2 Y54.969 E14.41192
G1 X25.454 Y54.349 E14.4342
G1 X25.928 Y53.257 E14.4738
G1 X26.428 Y52.191 E14.51296
G1 X26.806 Y51.429 E14.54125
G1 X27.411 Y50.291 E14.58412
G1 X27.832 Y49.541 E14.61272
G1 X28.367 Y48.645 E14.64743
G1 X28.883 Y47.82 E14.6798
G1 X29.559 Y46.806 E14.72033
G1 X30.25 Y45.825 E14.76024
G1 X30.673 Y45.258 E14.78377
G1 X31.342 Y44.394 E14.82011
G1 X32.121 Y43.448 E14.86087
G1 X32.867 Y42.588 E14.89874
G1 X33.494 Y41.904 E14.9296
G1 X34.301 Y41.063 E14.96837
G1 X34.95 Y40.423 E14.99868
G1 X35.818 Y39.603 E15.0384
G1 X36.481 Y39.012 E15.06794
G1 X37.154 Y38.432 E15.09749
G1 X37.93 Y37.798 E15.13082
G1 X39.031 Y36.946 E15.17712
G1 X39.618 Y36.517 E15.2013
G1 X40.726 Y35.746 E15.2462
G1 X41.348 Y35.338 E15.27094
G1 X42.502 Y34.616 E15.31622
G1 X43.278 Y34.164 E15.34608
G1 X44.362 Y33.561 E15.38734
G1 X44.929 Y33.266 E15.4086
G1 X46.198 Y32.64 E15.45566
G1 X47.048 Y32.252 E15.48674
G1 X48.074 Y31.81 E15.5239
G1 X48.753 Y31.538 E15.54822
G1 X50.047 Y31.053 E15.59419
G1 X50.751 Y30.811 E15.61895
G1 X51.738 Y30.493 E15.65344
G1 X52.891 Y30.157 E15.69338
G1 X53.766 Y29.924 E15.7235
G1 X54.767 Y29.686 E15.75772
G1 X56.122 Y29.399 E15.80379
G1 X57.014 Y29.239 E15.83393
G1 X57.819 Y29.108 E15.86105
G1 X59.045 Y28.944 E15.90219
G1 X60.245 Y28.815 E15.94234
G1 X61.126 Y28.746 E15.97173
G1 X62.289 Y28.679 E16.01047
G1 X63.005 Y28.656 E16.0343
G1 X64.112 Y28.643 E16.07112
G1 X65.17 Y28.659 E16.10632
G1 X66.133 Y28.695 E16.13837
G1 X67.393 Y28.779 E16.18037
G1 X68.589 Y28.891 E16.22032
G1 X69.475 Y29 E16.25001
G1 X70.666 Y29.171 E16.29003
G1 X71.364 Y29.291 E16.31359
G1 X72.369 Y29.481 E16.34761
G1 X73.608 Y29.753 E16.3898
G1 X74.726 Y30.031 E16.42811
G1 X75.448 Y30.231 E16.45303
G1 X76.443 Y30.525 E16.48754
G1 X77.651 Y30.922 E16.52983
G1 X78.677 Y31.289 E16.56607
G1 X79.563 Y31.633 E16.59769
G1 X80.614 Y32.068 E16.63552
G1 X81.262 Y32.356 E16.6591
G1 X82.506 Y32.943 E16.70485
G1 X83.352 Y33.372 E16.7364
G1 X84.142 Y33.793 E16.76618
G1 X85.169 Y34.377 E16.80547
G1 X86.161 Y34.975 E16.844
G1 X86.971 Y35.494 E16.87599
G1 X87.661 Y35.954 E16.90358
G1 X88.175 Y36.311 E16.92439
G1 X89.35 Y37.175 E16.9729
G1 X90.176 Y37.822 E17.0078
G1 X91.026 Y38.519 E17.04436
G1 X91.77 Y39.165 E17.07713
G1 X92.782 Y40.09 E17.12273
G1 X93.293 Y40.583 E17.14635
G1 X94.233 Y41.532 E17.19077
G1 X94.874 Y42.218 E17.222
G1 X95.493 Y42.907 E17.25281
G1 X96.25 Y43.799 E17.29172
G1 X96.978 Y44.701 E17.33027
G1 X97.554 Y45.459 E17.36194
G1 X98.259 Y46.431 E17.40187
G1 X98.763 Y47.167 E17.43154
G1 X99.24 Y47.891 E17.46038
G1 X99.89 Y48.944 E17.50154
G1 X100.47 Y49.937 E17.53979
G1 X100.818 Y50.568 E17.56375
G1 X101.314 Y51.511 E17.59919
G1 X101.859 Y52.629 E17.64056
G1 X102.315 Y53.627 E17.67705
G1 X102.587 Y54.264 E17.70009
G1 X103.154 Y55.682 E17.75088
G1 X103.461 Y56.525 E17.78072
G1 X103.666 Y57.12 E17.80165
G1 X103.922 Y57.986 E17.83169
G1 X104.1 Y58.872 E17.86175
G1 X104.2 Y59.769 E17.89177
G1 X104.22 Y60.256 E17.90798
G1 X104.239 Y61.368 E17.94497
G1 X104.238 Y159.904 E21.22229
G1 X104.228 Y160.593 E21.24521
G1 X104.175 Y161.495 E21.27526
G1 X104.042 Y162.388 E21.30529
G1 X103.831 Y163.266 E21.33532
G1 X103.678 Y163.752 E21.35227
G1 X103.269 Y164.931 E21.39378
G1 X102.981 Y165.694 E21.4209
G1 X102.506 Y166.853 E21.46256
G1 X102.05 Y167.888 E21.50018
G1 X101.651 Y168.729 E21.53114
G1 X101.128 Y169.774 E21.57001
G1 X100.702 Y170.567 E21.59995
G1 X100.262 Y171.354 E21.62993
G1 X99.714 Y172.274 E21.66555
G1 X99.19 Y173.111 E21.6984
G1 X98.511 Y174.131 E21.73915
G1 X97.999 Y174.862 E21.76883
G1 X97.289 Y175.818 E21.80844
G1 X96.567 Y176.741 E21.84742
G1 X95.964 Y177.469 E21.87886
G1 X95.197 Y178.353 E21.91778
G1 X94.726 Y178.869 E21.94102
G1 X93.775 Y179.866 E21.98685
G1 X93.075 Y180.553 E22.01947
G1 X92.173 Y181.4 E22.06062
G1 X91.876 Y181.668 E22.07393
G1 X90.7 Y182.681 E22.12555
G1 X90.005 Y183.241 E22.15524
G1 X89.275 Y183.808 E22.18598
G1 X88.469 Y184.402 E22.21928
G1 X87.351 Y185.182 E22.26462
G1 X86.572 Y185.691 E22.29557
G1 X85.825 Y186.16 E22.32491
G1 X84.768 Y186.781 E22.36568
G1 X84.043 Y187.187 E22.39332
G1 X82.995 Y187.737 E22.43269
G1 X82.147 Y188.158 E22.46418
G1 X81.229 Y188.584 E22.49784
G1 X80.277 Y189.001 E22.5324
G1 X79.126 Y189.464 E22.57367
G1 X78.041 Y189.869 E22.61219
G1 X77.122 Y190.182 E22.64448
G1 X76.056 Y190.519 E22.68166
G1 X75.185 Y190.769 E22.7118
G1 X74.31 Y191.002 E22.74192
G1 X73.322 Y191.238 E22.7757
G1 X72.275 Y191.464 E22.81133
G1 X71.236 Y191.657 E22.84648
G1 X69.924 Y191.868 E22.89068
G1 X69.029 Y191.983 E22.92069
G1 X67.856 Y192.109 E22.95993
G1 X67.142 Y192.167 E22.98375
G1 X66.041 Y192.235 E23.02044
G1 X65.084 Y192.269 E23.05229
G1 X63.695 Y192.282 E23.09849
G1 X62.8 Y192.263 E23.12827
G1 X61.546 Y192.209 E23.17001
G1 X60.836 Y192.159 E23.19369
G1 X59.56 Y192.042 E23.2363
G1 X58.603 Y191.927 E23.26836
G1 X57.446 Y191.76 E23.30724
G1 X56.532 Y191.602 E23.33809
G1 X55.708 Y191.445 E23.36599
G1 X54.683 Y191.222 E23.40088
G1 X53.66 Y190.975 E23.43589
G1 X52.629 Y190.695 E23.47142
G1 X51.634 Y190.401 E23.50593
G1 X50.425 Y190.004 E23.54825
G1 X49.419 Y189.644 E23.58379
G1 X48.681 Y189.359 E23.6101
G1 X47.415 Y188.837 E23.65565
G1 X46.801 Y188.563 E23.67801
G1 X45.806 Y188.098 E23.71454
G1 X44.939 Y187.665 E23.74677
G1 X43.943 Y187.136 E23.78428
G1 X43.056 Y186.635 E23.81817
G1 X42.148 Y186.094 E23.85332
G1 X41.13 Y185.447 E23.89344
G1 X40.404 Y184.963 E23.92246
G1 X39.548 Y184.359 E23.9573
G1 X38.452 Y183.541 E24.00279
G1 X37.762 Y182.992 E24.03212
G1 X36.838 Y182.225 E24.07206
G1 X36.102 Y181.578 E24.10465
G1 X35.505 Y181.033 E24.13154
G1 X34.661 Y180.22 E24.17051
G1 X34.009 Y179.563 E24.2013
G1 X33.572 Y179.106 E24.22233
G1 X32.648 Y178.089 E24.26803
G1 X31.814 Y177.109 E24.31083
G1 X31.074 Y176.191 E24.35005
G1 X30.532 Y175.478 E24.37984
G1 X29.842 Y174.529 E24.41886
G1 X29.313 Y173.758 E24.44996
G1 X28.836 Y173.034 E24.4788
G1 X28.283 Y172.142 E24.51371
G1 X27.758 Y171.253 E24.54805
G1 X27.264 Y170.363 E24.5819
G1 X26.768 Y169.423 E24.61725
G1 X26.209 Y168.276 E24.65969
G1 X25.744 Y167.256 E24.69698
G1 X25.476 Y166.627 E24.71972
G1 X25.055 Y165.586 E24.75706
G1 X24.701 Y164.639 E24.79069
G1 X24.406 Y163.786 E24.82071
G1 X24.151 Y162.92 E24.85074
G1 X23.974 Y162.034 E24.88079
G1 X23.876 Y161.137 E24.9108
G1 X23.857 Y160.661 E24.92664
G1 X23.839 Y159.584 E24.96247
G1 X23.84 Y61.022 E28.24065
G0 F6000 X23.44 Y61.016
G1 F1200 X23.45 Y60.327 E28.26357
G1 X23.503 Y59.408 E28.29419
G1 X23.636 Y58.497 E28.32481
G1 X23.848 Y57.601 E28.35544
G1 X24.017 Y57.058 E28.37435
G1 X24.422 Y55.889 E28.4155
G1 X24.83 Y54.818 E28.45362
G1 X25.084 Y54.198 E28.4759
G1 X25.692 Y52.81 E28.5263
G1 X26.07 Y52.013 E28.55564
G1 X26.593 Y50.969 E28.59448
G1 X26.955 Y50.291 E28.62004
G1 X27.484 Y49.345 E28.65609
G1 X28.12 Y48.284 E28.69723
G1 X28.716 Y47.343 E28.73428
G1 X29.231 Y46.577 E28.76498
G1 X29.93 Y45.586 E28.80532
G1 X30.477 Y44.856 E28.83566
G1 X31.23 Y43.894 E28.87629
G1 X31.68 Y43.35 E28.89977
G1 X32.571 Y42.319 E28.94509
G1 X33.204 Y41.629 E28.97624
G1 X34.02 Y40.779 E29.01543
G1 X34.674 Y40.134 E29.04598
G1 X35.551 Y39.305 E29.08612
G1 X36.22 Y38.709 E29.11592
G1 X36.893 Y38.129 E29.14547
G1 X37.85 Y37.351 E29.18649
G1 X38.795 Y36.623 E29.22616
G1 X39.382 Y36.194 E29.25035
G1 X40.506 Y35.412 E29.29589
G1 X41.296 Y34.896 E29.32727
G1 X42.3 Y34.271 E29.36661
G1 X43.082 Y33.815 E29.39671
G1 X43.882 Y33.366 E29.42723
G1 X44.92 Y32.822 E29.4662
G1 X46.031 Y32.276 E29.50738
G1 X46.888 Y31.885 E29.53871
G1 X47.925 Y31.439 E29.57625
G1 X48.807 Y31.088 E29.60783
G1 X49.624 Y30.78 E29.63687
G1 X50.835 Y30.362 E29.67948
G1 X51.906 Y30.024 E29.71683
G1 X52.788 Y29.771 E29.74735
G1 X53.663 Y29.538 E29.77747
G1 X54.859 Y29.256 E29.81834
G1 X56.05 Y29.006 E29.85881
G1 X56.762 Y28.877 E29.88288
G1 X58.069 Y28.667 E29.92691
G1 X59 Y28.546 E29.95813
G1 X59.887 Y28.447 E29.98782
G1 X60.897 Y28.361 E30.02153
G1 X62.276 Y28.279 E30.06748
G1 X62.992 Y28.256 E30.09131
G1 X64.428 Y28.244 E30.13907
G1 X65.379 Y28.265 E30.17071
G1 X66.148 Y28.295 E30.1963
G1 X67.429 Y28.38 E30.239
G1 X68.311 Y28.459 E30.26846
G1 X69.531 Y28.604 E30.30932
G1 X70.734 Y28.777 E30.34974
G1 X71.62 Y28.931 E30.37965
G1 X72.744 Y29.15 E30.41774
G1 X73.703 Y29.364 E30.45042
G1 X74.521 Y29.564 E30.47843
G1 X75.555 Y29.846 E30.51408
G1 X76.871 Y30.24 E30.55977
G1 X77.584 Y30.476 E30.58475
G1 X78.822 Y30.916 E30.62845
G1 X79.516 Y31.184 E30.65319
G1 X80.776 Y31.703 E30.69851
G1 X81.625 Y32.083 E30.72945
